svgs/sharp-light/octagon-minus.svg

<svg xmlns="http://www.w3.org/2000/svg" viewBox="0 0 512 512"><!--! Font Awesome Pro 6.6.0 by @fontawesome - https://fontawesome.com License - https://fontawesome.com/license (Commercial License) Copyright 2024 Fonticons, Inc. --><path d="M32 338.7l0-165.5L173.3 32l165.5 0L480 173.3l0 165.5L338.7 480l-165.5 0L32 338.7zM160 0L0 160 0 352 160 512l192 0L512 352l0-192L352 0 160 0zm0 240l-16 0 0 32 16 0 192 0 16 0 0-32-16 0-192 0z"/></svg>

<svg xmlns="http://www.w3.org/2000/svg" viewBox="0 0 512 512"><!--! Font Awesome Pro 6.4.0 by @fontawesome - https://fontawesome.com License - https://fontawesome.com/license (Commercial License) Copyright 2023 Fonticons, Inc. --><path d="M32 338.7V173.3L173.3 32H338.7L480 173.3V338.7L338.7 480H173.3L32 338.7zM160 0L0 160V352L160 512H352L512 352V160L352 0H160zm0 240H144v32h16H352h16V240H352 160z"/></svg>
